X:1
T:Title
%%score { ( 1 3 4 ) | ( 2 5 ) }
L:1/8
Q:1/4=100
M:4/4
K:A
V:1 treble nm="Grand Piano"
V:3 treble 
V:4 treble 
V:2 bass 
V:5 bass 
V:1
 E2 C>E A3 A | AG[EA]B c2 A2 | [Fd]2 [DF]>[Fd] c3 c | cB [^DB]>[DA] B4 | E2 C>E A3 A | %5
w: Geo.~C.~Stebbins * * * *|||||
 AG[EA]B c2 A2 | d2 c>[FB] [Ee][Ec][CA][Fd] | [Ec]2 [DB]2 [CA]4 | [Ec]6 z2 | [CE]6 z2 | %10
w: |||||
 B2 B2 B>E [A,EA]>[EB] | [Ec]6[K:bass] z2 | e6 z2 | F6 z2 | c2 A2 c>B A>G |[M:3/4] [CA]6 |] %16
w: ||||||
V:2
 E,2 C,>E, A,3 A, | [A,CE][E,B,E][C,A,][E,G,E] [A,E]2 [A,C]2 | [D,A,]2 [D,A,]>[D,A,] [A,E]3 [A,E] | %3
 [F,A,^D][F,A,D] [B,,F,]>[B,,B,] [E,G,E]4 | E,2 C,>E, A,3 A, | %5
 [A,CE][E,B,E][C,A,][E,G,E] [A,E]2 [A,C]2 | [F,A,D]2 [E,A,E]>[D,A,] [C,A,][A,,A,][F,A,][D,A,] | %7
 [E,A,]2 [E,G,]2 [A,,A,]4 | [A,,A,]2 A,,>A,, z D C>D | A,,2 A,,>A,, A,,2 C,2 | %10
 [E,G,E]2 [E,G,E]2 [E,G,E]>[D,B,] C,>G, | A,2 E,>C, A,,2 z2 | [A,A]2 z2 A,2 z2 | %13
 [D,A,D]2 [D,A,]>[D,A,] [D,A,]2 [B,,A,]2 | [E,A,E]2 [E,A,C]2 [E,A,E]>[E,DE] [E,CE]>[E,B,D] | %15
[M:3/4] [A,,A,]6 |] %16
V:3
 x8 | x8 | x8 | x8 | x8 | x8 | x8 | x8 | z2 A,>A, z B A>F | A,2 A,>A, A,2 [A,EA]2 | x8 | %11
 z2[K:bass] A,>A, A,2 z2 | z2 A>A z c B>A | z2 D>D D2 [Fd]2 | x8 |[M:3/4] x6 |] %16
V:4
 x8 | x8 | x8 | x8 | x8 | x8 | x8 | x8 | z4 A,2 z2 | x8 | x8 | x2[K:bass] x6 | z4 A2 z2 | x8 | x8 | %15
[M:3/4] x6 |] %16
V:5
 x8 | x8 | x8 | x8 | x8 | x8 | x8 | x8 | z4 A,,2 z2 | x8 | x8 | x8 | C2- [A,C-]>[A,C-] CE D>C | %13
 x8 | x8 |[M:3/4] x6 |] %16

